svg/broadcast.svg

<?xml version="1.0" encoding="UTF-8"?>
<svg xmlns="http://www.w3.org/2000/svg" xmlns:xlink="http://www.w3.org/1999/xlink" width="32" height="32" viewBox="0 0 32 32">
<path fill-rule="nonzero" fill="rgb(0%, 0%, 0%)" fill-opacity="1" d="M 28.480469 0 C 26.539062 0.00390625 24.960938 1.578125 24.960938 3.519531 C 24.960938 5.464844 26.535156 7.039062 28.480469 7.039062 C 30.421875 7.039062 31.996094 5.460938 32 3.519531 C 31.996094 1.578125 30.421875 0.00390625 28.480469 0 M 21.941406 0.859375 C 21.902344 0.863281 21.859375 0.871094 21.820312 0.878906 C 21.585938 0.929688 21.398438 1.105469 21.332031 1.335938 C 21.269531 1.570312 21.34375 1.816406 21.519531 1.980469 L 22.78125 3.199219 L 15.359375 3.199219 C 8.527344 3.199219 5.53125 7.160156 4.71875 9.621094 C 4.851562 9.613281 4.992188 9.601562 5.121094 9.601562 C 5.453125 9.601562 5.78125 9.628906 6.101562 9.679688 C 6.898438 7.78125 9.332031 4.480469 15.359375 4.480469 L 22.78125 4.480469 L 21.582031 5.71875 C 21.394531 5.878906 21.3125 6.128906 21.371094 6.367188 C 21.433594 6.605469 21.625 6.785156 21.863281 6.835938 C 22.101562 6.886719 22.347656 6.796875 22.5 6.601562 L 24.78125 4.238281 C 25.019531 3.984375 25.007812 3.582031 24.757812 3.339844 L 22.398438 1.058594 C 22.277344 0.933594 22.113281 0.863281 21.941406 0.859375 M 28.480469 8.320312 C 26.539062 8.324219 24.964844 9.898438 24.960938 11.839844 C 24.964844 13.785156 26.539062 15.359375 28.480469 15.359375 C 30.425781 15.359375 31.996094 13.78125 32 11.839844 C 31.996094 9.898438 30.421875 8.324219 28.480469 8.320312 M 21.941406 9.179688 C 21.902344 9.183594 21.859375 9.191406 21.820312 9.199219 C 21.585938 9.25 21.398438 9.425781 21.332031 9.65625 C 21.269531 9.890625 21.34375 10.136719 21.519531 10.300781 L 22.78125 11.519531 L 19.539062 11.519531 C 15.75 11.519531 14.75 12.5 13.859375 13.359375 C 13.289062 13.910156 12.773438 14.386719 11.359375 14.601562 C 11.453125 15.011719 11.511719 15.445312 11.519531 15.878906 C 13.363281 15.609375 14.058594 14.9375 14.742188 14.28125 C 15.523438 13.523438 16.265625 12.800781 19.539062 12.800781 L 22.78125 12.800781 L 21.578125 14.039062 C 21.390625 14.195312 21.3125 14.449219 21.371094 14.6875 C 21.433594 14.925781 21.621094 15.105469 21.863281 15.15625 C 22.101562 15.207031 22.351562 15.117188 22.5 14.921875 L 24.78125 12.558594 C 25.023438 12.304688 25.011719 11.902344 24.757812 11.660156 L 22.398438 9.378906 C 22.28125 9.253906 22.113281 9.179688 21.941406 9.179688 M 5.121094 10.878906 C 2.292969 10.882812 0.00390625 13.171875 0 16 C 0.00390625 18.828125 2.292969 21.117188 5.121094 21.121094 C 7.945312 21.117188 10.234375 18.824219 10.238281 16 C 10.234375 13.175781 7.945312 10.882812 5.121094 10.878906 M 28.480469 16.640625 C 26.539062 16.644531 24.964844 18.21875 24.960938 20.160156 C 24.964844 22.105469 26.539062 23.679688 28.480469 23.679688 C 30.421875 23.675781 31.996094 22.101562 32 20.160156 C 31.996094 18.21875 30.421875 16.644531 28.480469 16.640625 M 11.480469 16.761719 C 11.429688 17.183594 11.335938 17.597656 11.199219 18 C 12.738281 18.199219 13.265625 18.710938 13.859375 19.28125 C 14.75 20.140625 15.75 21.121094 19.539062 21.121094 L 22.78125 21.121094 L 21.582031 22.359375 C 21.394531 22.515625 21.3125 22.769531 21.371094 23.007812 C 21.433594 23.246094 21.625 23.425781 21.863281 23.476562 C 22.101562 23.523438 22.347656 23.433594 22.5 23.242188 L 24.78125 20.878906 C 25.019531 20.625 25.011719 20.222656 24.757812 19.980469 L 22.398438 17.699219 C 22.25 17.546875 22.03125 17.476562 21.820312 17.519531 C 21.585938 17.570312 21.398438 17.746094 21.332031 17.976562 C 21.269531 18.210938 21.34375 18.457031 21.519531 18.621094 L 22.78125 19.839844 L 19.539062 19.839844 C 16.265625 19.839844 15.523438 19.117188 14.742188 18.359375 C 14.050781 17.699219 13.355469 17.023438 11.480469 16.761719 M 6.097656 22.320312 C 5.773438 22.371094 5.449219 22.398438 5.121094 22.398438 C 4.988281 22.398438 4.851562 22.386719 4.71875 22.378906 C 5.53125 24.839844 8.527344 28.800781 15.359375 28.800781 L 22.78125 28.800781 L 21.519531 30.019531 C 21.328125 30.171875 21.238281 30.417969 21.285156 30.65625 C 21.332031 30.898438 21.511719 31.089844 21.75 31.152344 C 21.988281 31.210938 22.242188 31.128906 22.398438 30.941406 L 24.761719 28.660156 C 25.011719 28.417969 25.023438 28.015625 24.78125 27.761719 L 22.5 25.398438 C 22.351562 25.238281 22.136719 25.164062 21.921875 25.199219 C 21.6875 25.242188 21.496094 25.410156 21.425781 25.636719 C 21.351562 25.867188 21.414062 26.113281 21.582031 26.28125 L 22.78125 27.519531 L 15.359375 27.519531 C 9.332031 27.519531 6.898438 24.21875 6.101562 22.320312 M 28.480469 24.960938 C 26.535156 24.964844 24.960938 26.539062 24.960938 28.480469 C 24.964844 30.421875 26.539062 31.996094 28.480469 32 C 30.421875 31.996094 31.996094 30.421875 32 28.480469 C 31.996094 26.539062 30.421875 24.964844 28.480469 24.960938 "/>
</svg>

<svg role="img" viewBox="0 0 32 32" xmlns="http://www.w3.org/2000/svg"><path d="M28.48 0a3.525 3.525 0 0 0-3.52 3.52 3.52 3.52 0 0 0 3.52 3.52A3.525 3.525 0 0 0 32 3.52 3.53 3.53 0 0 0 28.48 0m-6.539.86a1 1 0 0 0-.12.019.65.65 0 0 0-.489.457.65.65 0 0 0 .188.644l1.26 1.22h-7.42c-6.833 0-9.829 3.96-10.64 6.42.133-.008.273-.02.402-.02q.499.001.98.079c.797-1.899 3.231-5.2 9.258-5.2h7.422l-1.2 1.241a.65.65 0 0 0-.21.648.65.65 0 0 0 .491.469c.239.05.485-.04.637-.234l2.281-2.364a.643.643 0 0 0-.023-.898l-2.36-2.281a.66.66 0 0 0-.457-.2m6.54 7.461a3.53 3.53 0 0 0-3.52 3.52 3.523 3.523 0 0 0 3.52 3.52A3.523 3.523 0 0 0 32 11.84a3.53 3.53 0 0 0-3.52-3.52m-6.539.86a1 1 0 0 0-.12.02.65.65 0 0 0-.489.456.65.65 0 0 0 .188.645l1.261 1.219H19.54c-3.789 0-4.789.98-5.68 1.84-.57.55-1.086 1.027-2.5 1.242.094.41.153.843.16 1.277 1.844-.27 2.54-.941 3.223-1.598.781-.758 1.524-1.48 4.797-1.48h3.242l-1.203 1.238a.642.642 0 1 0 .922.883l2.281-2.363a.636.636 0 0 0-.023-.899l-2.36-2.281a.63.63 0 0 0-.457-.2m-16.82 1.7A5.126 5.126 0 0 0 0 16a5.126 5.126 0 0 0 5.121 5.121A5.13 5.13 0 0 0 10.238 16a5.13 5.13 0 0 0-5.117-5.121m23.36 5.762a3.53 3.53 0 0 0-3.52 3.52 3.523 3.523 0 0 0 3.52 3.519A3.53 3.53 0 0 0 32 20.16a3.53 3.53 0 0 0-3.52-3.52m-17 .122q-.076.634-.28 1.238c1.538.2 2.066.71 2.66 1.281.89.86 1.89 1.84 5.68 1.84h3.241l-1.199 1.238a.65.65 0 0 0-.21.649.65.65 0 0 0 .491.469.65.65 0 0 0 .637-.235l2.281-2.363a.64.64 0 0 0-.023-.899l-2.36-2.28a.63.63 0 0 0-.578-.18.65.65 0 0 0-.488.457.65.65 0 0 0 .188.644l1.261 1.219H19.54c-3.273 0-4.016-.723-4.797-1.48-.691-.66-1.387-1.337-3.262-1.598M6.098 22.32q-.486.077-.977.078c-.133 0-.27-.011-.402-.02.812 2.462 3.808 6.423 10.64 6.423h7.422L21.52 30.02a.65.65 0 0 0-.235.636.64.64 0 0 0 .465.496.65.65 0 0 0 .648-.21l2.364-2.282a.64.64 0 0 0 .02-.898L22.5 25.398a.64.64 0 0 0-.578-.199.64.64 0 0 0-.496.438.63.63 0 0 0 .156.644l1.2 1.239h-7.423c-6.027 0-8.46-3.301-9.257-5.2m22.378 2.64a3.523 3.523 0 0 0-3.52 3.52A3.53 3.53 0 0 0 28.48 32 3.53 3.53 0 0 0 32 28.48a3.53 3.53 0 0 0-3.52-3.52" fill="rgb(0%, 0%, 0%)"/></svg>
